src/assets/icons/adwaita/places/go-home.svg

<?xml version="1.0" encoding="UTF-8"?>
<svg height="128px" viewBox="0 0 128 128" width="128px" xmlns="http://www.w3.org/2000/svg" xmlns:xlink="http://www.w3.org/1999/xlink">
    <linearGradient id="go_home_a" gradientTransform="matrix(0.45451 0 0 0.455522 -1210.292114 616.172607)" gradientUnits="userSpaceOnUse" x1="2689.251953" x2="2918.069824" y1="-1106.802979" y2="-1106.802979">
        <stop offset="0" stop-color="#62a0ea"/>
        <stop offset="0.0576991" stop-color="#afd4ff"/>
        <stop offset="0.122204" stop-color="#62a0ea"/>
        <stop offset="0.873306" stop-color="#62a0ea"/>
        <stop offset="0.955997" stop-color="#c0d5ea"/>
        <stop offset="1" stop-color="#62a0ea"/>
    </linearGradient>
    <path d="m 21.976562 12 c -5.527343 0 -9.976562 4.460938 -9.976562 10 v 86.03125 c 0 5.542969 4.449219 10 9.976562 10 h 84.042969 c 5.53125 0 9.980469 -4.457031 9.980469 -10 v -72.085938 c 0 -6.628906 -5.359375 -12 -11.972656 -12 h -46.027344 c -2.453125 0 -4.695312 -1.386718 -5.796875 -3.582031 l -1.503906 -2.992187 c -1.65625 -3.292969 -5.019531 -5.371094 -8.699219 -5.371094 z m 0 0" fill="#438de6"/>
    <path d="m 65.976562 36 c -2.746093 0 -5.226562 1.101562 -7.027343 2.890625 c -2.273438 2.253906 -5.382813 5.109375 -8.632813 5.109375 h -28.339844 c -5.527343 0 -9.976562 4.460938 -9.976562 10 v 54.03125 c 0 5.542969 4.449219 10 9.976562 10 h 84.042969 c 5.53125 0 9.980469 -4.457031 9.980469 -10 v -62.03125 c 0 -5.539062 -4.449219 -10 -9.980469 -10 z m 0 0" fill="url(#go_home_a)"/>
    <path d="m 65.976562 32 c -2.746093 0 -5.226562 1.101562 -7.027343 2.890625 c -2.273438 2.253906 -5.382813 5.109375 -8.632813 5.109375 h -28.339844 c -5.527343 0 -9.976562 4.460938 -9.976562 10 v 55.976562 c 0 5.539063 4.449219 10 9.976562 10 h 84.042969 c 5.53125 0 9.980469 -4.460937 9.980469 -10 v -63.976562 c 0 -5.539062 -4.449219 -10 -9.980469 -10 z m 0 0" fill="#a4caee"/>
    <path d="m 64.875 64 c -0.414062 0 -0.820312 0.132812 -1.164062 0.367188 l -14.878907 10 c -0.898437 0.648437 -1.109375 1.890624 -0.46875 2.789062 c 0.382813 0.53125 0.984375 0.84375 1.632813 0.835938 v 8.007812 c 0 3.289062 2.710937 6 6 6 h 18.003906 c 3.289062 0 6 -2.640625 6 -6 v -8.007812 c 0.648438 0.007812 1.25 -0.304688 1.632812 -0.835938 c 0.640626 -0.898438 0.429688 -2.140625 -0.46875 -2.789062 l -15.125 -10 c -0.34375 -0.234376 -0.75 -0.367188 -1.164062 -0.367188 z m 0 4.453125 l 11.125 7.140625 v 10.40625 c 0 1.125 -0.875 2 -2 2 h -8.003906 v -8 c 0 -1.109375 -0.890625 -2 -2 -2 h -2 c -1.109375 0 -2 0.890625 -2 2 v 8 h -4 c -1.125 0 -2 -0.875 -2 -2 v -10.40625 z m 0 0" fill="#438de6"/>
</svg>

<svg xmlns="http://www.w3.org/2000/svg" width="128" height="128" viewBox="0 0 128 128"><linearGradient id="go_home_a" x1="2689.252" x2="2918.07" y1="-1106.803" y2="-1106.803" gradientTransform="matrix(.45451 0 0 .45552 -1210.292 616.173)" gradientUnits="userSpaceOnUse"><stop offset="0" stop-color="#62a0ea"/><stop offset=".058" stop-color="#afd4ff"/><stop offset=".122" stop-color="#62a0ea"/><stop offset=".873" stop-color="#62a0ea"/><stop offset=".956" stop-color="#c0d5ea"/><stop offset="1" stop-color="#62a0ea"/></linearGradient><path fill="#438de6" d="M21.977 12C16.449 12 12 16.46 12 22v86.031c0 5.543 4.45 10 9.977 10h84.043a9.965 9.965 0 0 0 9.98-10V35.945c0-6.629-5.36-12-11.973-12H58a6.49 6.49 0 0 1-5.797-3.582L50.7 17.371A9.74 9.74 0 0 0 42 12zm0 0"/><path fill="url(#go_home_a)" d="M65.977 36a9.93 9.93 0 0 0-7.028 2.89C56.676 41.146 53.566 44 50.316 44h-28.34C16.45 44 12 48.46 12 54v54.031c0 5.543 4.45 10 9.977 10h84.043a9.965 9.965 0 0 0 9.98-10V46c0-5.54-4.45-10-9.98-10zm0 0"/><path fill="#a4caee" d="M65.977 32a9.93 9.93 0 0 0-7.028 2.89C56.676 37.146 53.566 40 50.316 40h-28.34C16.45 40 12 44.46 12 50v55.977c0 5.539 4.45 10 9.977 10h84.043c5.53 0 9.98-4.461 9.98-10V42c0-5.54-4.45-10-9.98-10zm0 0"/><path fill="#438de6" d="M64.875 64c-.414 0-.82.133-1.164.367l-14.879 10a2 2 0 0 0-.469 2.79 1.98 1.98 0 0 0 1.633.835V86c0 3.29 2.711 6 6 6H74c3.29 0 6-2.64 6-6v-8.008a1.98 1.98 0 0 0 1.633-.836c.64-.898.43-2.14-.469-2.789l-15.125-10A2.1 2.1 0 0 0 64.875 64m0 4.453L76 75.593V86c0 1.125-.875 2-2 2h-8.004v-8c0-1.11-.89-2-2-2h-2c-1.11 0-2 .89-2 2v8h-4c-1.125 0-2-.875-2-2V75.594zm0 0"/></svg>
